X:118
T:Granny in the Wood
R:polka 32
C:Trad.
S:Ian Dedic
M:4/4
L:1/8
Q:1/4=180
K:G
|:z2|"G"g4 "D"f4|"C"ed ef e2 "D"d2|"G"BG Bd "C"e2 "D"d2|"G"BG Bd "C"e2"D"f2|
"G"g4 "D"f4|"C"ed ef e2"D"d2|"G"BG Bd "C"e2d2|"D"B2A2 "G"G2:|]
|:Bc|"G"d2G2 GA GD|"D"F2A2 A3d|"C"e2AA e2AA|e2d2 "D"BB c^c|
"G"d2G2 GA GD|"D"F2A2 A4|"C"e2d2 Bc dB|A2G2 G2:|]

